X: 3
$SmallLMargin
$SmallRMargin
T: Grand Picnic $1(R-123)
I: Grand Picnic		R-123	D	reel
M: C|
R: reel
K: D
"D"DFAB AFEF| DFAd fedf| "G"edBc "Em"dBAB| "A"AFE2 E2FE|
"D"DFAB AFEF| DFAd fedf| "G"edBc "Em"dcdB |1 "A"AFE2 "D"D2FE :|2 "A"AFE2 "D"D2de|]
|:"D" fefg a2a2| fefg a2fa| "G"g2ge "D"fedf| "Em"edef "A"edB2|
"D"dcdA BAFE| DFAd fedf| "G"edBc "Em"dcdB | "A"AFE2 "D"D4 :|
%%scale .5
%%text 08/29/98 

#include "RightHeader.h"
% ---------- set 47 ----------
% Reel des Acadiens (A) / Reel du Brae (A Dor) / Reel des Accordeonistes (D)
%%text Set 47
%%vskip -1cm
%%scale .65
$SmallLMargin
$SmallRMargin
